src/images/ao_logo.svg

<svg width="215" height="66" viewBox="0 0 215 66" fill="none" xmlns="http://www.w3.org/2000/svg">
<path d="M0 38C0 32.14 4.42 26.28 10 23.31L10.32 23.95C7.83 25.8 5.74 28.95 5.74 34.3C5.74 41.53 11.36 47.95 18.1 47.95C21.2323 48.0315 24.277 46.9116 26.61 44.82L27.01 45.38C25.489 47.4475 23.4998 49.1253 21.2054 50.276C18.911 51.4267 16.3767 52.0175 13.81 52C5 52 0 46.09 0 38Z" fill="white"/>
<path d="M14.4501 22.65C12.0001 19.2 9.07007 15 9.07007 10.61C9.07007 4.91 13.6501 0.819996 19.5101 0.0899963V0.819996C17.1001 1.62 15.1701 3.31 15.1701 7.08C15.1701 10.45 16.8601 13.08 20.8701 18.64L46.0801 51.31H36.9301L14.4501 22.65Z" fill="white"/>
<path d="M23.52 16.47C26.01 14.7 27.45 12.7 27.45 8.47C27.45 3.97 25.52 1.47 22.23 0.839996V0.0899963C28.58 0.579996 31.87 4 31.87 8.36C31.87 12.72 27.77 15.59 23.92 17L23.52 16.47Z" fill="white"/>
<path d="M41.12 30.61C43.655 30.61 45.71 28.555 45.71 26.02C45.71 23.485 43.655 21.43 41.12 21.43C38.585 21.43 36.53 23.485 36.53 26.02C36.53 28.555 38.585 30.61 41.12 30.61Z" fill="white"/>
<path d="M109.73 17.78L116.73 16.78V48.89C118.669 50.1154 120.825 50.9604 123.08 51.38V52C120.932 51.9154 118.8 51.5798 116.73 51V65.7H109.73V17.78ZM125.4 51.39C131.91 50.75 136.74 45.04 136.74 34.75C136.74 24.75 133.68 20.28 126.74 20.28C123.846 20.29 121.036 21.249 118.74 23.01V22.29C120.192 20.6592 121.96 19.3405 123.936 18.4139C125.913 17.4874 128.058 16.9723 130.24 16.9C139.49 16.9 144.15 23.09 144.15 33.46C144.15 44.55 136.91 51.46 125.5 52.03L125.4 51.39Z" fill="white"/>
<path d="M148.39 33.94C148.386 29.7191 149.945 25.6464 152.767 22.5072C155.589 19.3681 159.473 17.3848 163.67 16.94V17.58C157.88 19.03 155.47 25.06 155.47 31.73C155.47 42.02 160.86 46.73 167.85 46.73C171.675 46.8245 175.399 45.4952 178.3 43V43.88C177.045 46.3542 175.121 48.4267 172.747 49.8621C170.373 51.2975 167.644 52.0382 164.87 52C154.66 52 148.39 44.47 148.39 33.94ZM155 30.08L171.57 29.28C171.57 22.77 169.64 18.19 166.42 17.62V17C174.42 17.56 178 23.59 178 30.83H155V30.08Z" fill="white"/>
<path d="M184.16 17.78L191.16 16.9V51.39H184.16V17.78ZM207.07 27.67C207.07 23.25 204.98 20.84 200.16 20.84C197.6 20.8414 195.101 21.6266 193 23.09V22.53C194.376 20.8559 196.089 19.4897 198.027 18.5198C199.965 17.5499 202.085 16.9981 204.25 16.9C210.68 16.9 214.06 20.84 214.06 26.9V51.39H207.06L207.07 27.67Z" fill="white"/>
<path d="M202.14 21C198.23 20.28 192.88 22.68 191.14 25.21L191 24.11C191 24.11 195.69 17.47 203.6 16.92L202.14 21Z" fill="white"/>
<path d="M163.34 17C164.701 16.8507 166.076 16.8776 167.43 17.08L167.54 18C166.796 17.666 165.993 17.4833 165.177 17.4627C164.362 17.4421 163.55 17.584 162.79 17.88L163.34 17Z" fill="white"/>
<path d="M119.82 21.06C118.699 22.0959 117.662 23.2195 116.72 24.42V26.42C117.254 24.7416 118.344 23.2953 119.81 22.32C121.295 21.3526 122.963 20.6992 124.71 20.4L119.82 21.06Z" fill="white"/>
<path d="M116.72 48.89C118.917 50.2463 121.421 51.0238 124 51.15C126.47 51.1185 128.886 50.4281 131 49.15L132 50.78C129.574 51.8585 126.933 52.3648 124.28 52.26C121.653 52.3522 119.033 51.9415 116.56 51.05L116.72 48.89Z" fill="white"/>
<path d="M52.8101 26.06C52.8101 11.67 64.1501 0 78.1401 0C92.1301 0 103.46 11.67 103.46 26.06C103.46 40.45 92.1201 52.12 78.1401 52.12C64.1601 52.12 52.8101 40.46 52.8101 26.06ZM78.1401 51.39C87.5501 51.39 95.1401 43.16 95.1401 26.07C95.1801 9.2 87.5501 0.74 78.1401 0.74C68.7301 0.74 61.1401 9.13 61.1401 26.06C61.1401 42.99 68.7201 51.39 78.1401 51.39Z" fill="white"/>
</svg>

<svg id="Layer_1" data-name="Layer 1" xmlns="http://www.w3.org/2000/svg" viewBox="0 0 215 66"><defs><style>.cls-1{fill:#231f20;}</style></defs><title>ao_logo</title><path class="cls-1" d="M0,38c0-5.86,4.42-11.72,10-14.69l.32.64c-2.49,1.85-4.58,5-4.58,10.35,0,7.23,5.62,13.65,12.36,13.65a12.27,12.27,0,0,0,8.51-3.13l.4.56A16.25,16.25,0,0,1,13.81,52C5,52,0,46.09,0,38Z"/><path class="cls-1" d="M14.45,22.65C12,19.2,9.07,15,9.07,10.61,9.07,4.91,13.65.82,19.51.09V.82c-2.41.8-4.34,2.49-4.34,6.26,0,3.37,1.69,6,5.7,11.56L46.08,51.31H36.93Z"/><path class="cls-1" d="M23.52,16.47c2.49-1.77,3.93-3.77,3.93-8,0-4.5-1.93-7-5.22-7.63V.09C28.58.58,31.87,4,31.87,8.36S27.77,15.59,23.92,17Z"/><circle class="cls-1" cx="41.12" cy="26.02" r="4.59"/><path class="cls-1" d="M109.73,17.78l7-1V48.89a18.08,18.08,0,0,0,6.35,2.49V52a27.57,27.57,0,0,1-6.35-1V65.7h-7ZM125.4,51.39c6.51-.64,11.34-6.35,11.34-16.64,0-10-3.06-14.47-10-14.47a13.22,13.22,0,0,0-8,2.73v-.72a16.11,16.11,0,0,1,11.5-5.39c9.25,0,13.91,6.19,13.91,16.56,0,11.09-7.24,18-18.65,18.57Z"/><path class="cls-1" d="M148.39,33.94a17.08,17.08,0,0,1,15.28-17v.64c-5.79,1.45-8.2,7.48-8.2,14.15,0,10.29,5.39,15,12.38,15A15.44,15.44,0,0,0,178.3,43v.88A14.83,14.83,0,0,1,164.87,52C154.66,52,148.39,44.47,148.39,33.94ZM155,30.08l16.57-.8c0-6.51-1.93-11.09-5.15-11.66V17c8,.56,11.58,6.59,11.58,13.83H155Z"/><path class="cls-1" d="M184.16,17.78l7-.88V51.39h-7Zm22.91,9.89c0-4.42-2.09-6.83-6.91-6.83A12.54,12.54,0,0,0,193,23.09v-.56a15.47,15.47,0,0,1,11.25-5.63c6.43,0,9.81,3.94,9.81,10V51.39h-7Z"/><path class="cls-1" d="M202.14,21c-3.91-.72-9.26,1.68-11,4.21l-.14-1.1s4.69-6.64,12.6-7.19Z"/><path class="cls-1" d="M163.34,17a15.92,15.92,0,0,1,4.09.08l.11.92a6.15,6.15,0,0,0-4.75-.12Z"/><path class="cls-1" d="M119.82,21.06a28.74,28.74,0,0,0-3.1,3.36v2a7.74,7.74,0,0,1,3.09-4.1,13,13,0,0,1,4.9-1.92Z"/><path class="cls-1" d="M116.72,48.89A15.28,15.28,0,0,0,124,51.15a13.87,13.87,0,0,0,7-2l1,1.63a17.32,17.32,0,0,1-7.72,1.48,20.63,20.63,0,0,1-7.72-1.21Z"/><path class="cls-1" d="M52.81,26.06C52.81,11.67,64.15,0,78.14,0s25.32,11.67,25.32,26.06S92.12,52.12,78.14,52.12,52.81,40.46,52.81,26.06ZM78.14,51.39c9.41,0,17-8.23,17-25.32C95.18,9.2,87.55.74,78.14.74s-17,8.39-17,25.32S68.72,51.39,78.14,51.39Z"/></svg>
